X: 11633
T: FAVOURITE WALTZ
%R: waltz
B: W. Hamilton "Universal Tune-Book" Vol. 1 Glasgow 1844 p.163 #3
S: http://imslp.org/wiki/Hamilton's_Universal_Tune-Book_(Various)
Z: 2016 John Chambers <jc:trillian.mit.edu>
M: 3/4
L: 1/8
K: Eb
%%slurgraces yes
%%graceslurs yes
% - - - - - - - - - - - - - - - - - - - - - - - - -
[|\
(ededed) | (ededed) | (edefga) | (Bcdefg) |\
(agagag) | (agagag) | (abagfe) | (dcBAGF) |\
E2g2g2 | b4g2 | f2b2b2 | (gagf)e2 |
E2g2g2 | b4g2 | (fgafed) | e4 |:\
"^Dolce."(fe) | d2{c}d2{c}d2 | {c}d2c2d2 | e4g2 |\
b4(ge) | d2{c}d2{c}d2 | {c}d2c2d2 | (edegfd) | e4 :|
% - - - - - - - - - - - - - - - - - - - - - - - - -

%%sep 1 1 500
%%sep 1 1 500

